assets/img/favicon.svg

<?xml version="1.0"?>
<svg width="640" height="512" xmlns="http://www.w3.org/2000/svg" xmlns:svg="http://www.w3.org/2000/svg">
 <!--!Font Awesome Free 6.7.2 by @fontawesome - https://fontawesome.com License - https://fontawesome.com/license/free Copyright 2024 Fonticons, Inc.-->
 <g class="layer">
  <title>Layer 1</title>
  <path d="m384,32l128,0c17.7,0 32,14.3 32,32s-14.3,32 -32,32l-113.6,0c-5.2,25.8 -22.9,47.1 -46.4,57.3l0,294.7l160,0c17.7,0 32,14.3 32,32s-14.3,32 -32,32l-192,0l-192,0c-17.7,0 -32,-14.3 -32,-32s14.3,-32 32,-32l160,0l0,-294.7c-23.5,-10.3 -41.2,-31.6 -46.4,-57.3l-113.6,0c-17.7,0 -32,-14.3 -32,-32s14.3,-32 32,-32l128,0c14.6,-19.4 37.8,-32 64,-32s49.4,12.6 64,32zm55.6,288l144.9,0l-72.5,-124.2l-72.4,124.2zm72.4,96c-62.9,0 -115.2,-34 -126,-78.9c-2.6,-11 1,-22.3 6.7,-32.1l95.2,-163.2c5,-8.6 14.2,-13.8 24.1,-13.8s19.1,5.3 24.1,13.8l95.2,163.2c5.7,9.8 9.3,21.1 6.7,32.1c-10.8,44.9 -63.1,78.9 -126,78.9zm-385.2,-220.2l-72.4,124.2l144.9,0l-72.5,-124.2zm-125.9,141.3c-2.6,-11 1,-22.3 6.7,-32.1l95.2,-163.2c5,-8.6 14.2,-13.8 24.1,-13.8s19.1,5.3 24.1,13.8l95.2,163.2c5.7,9.8 9.3,21.1 6.7,32.1c-10.9,44.9 -63.2,78.9 -126.1,78.9s-115.1,-34 -125.9,-78.9z" fill="#2f2c79" id="svg_1"/>
 </g>
</svg>

<svg xmlns="http://www.w3.org/2000/svg" viewBox="0 0 640 512"><!--!Font Awesome Free 6.7.2 by @fontawesome - https://fontawesome.com License - https://fontawesome.com/license/free Copyright 2024 Fonticons, Inc.--><path d="M384 32l128 0c17.7 0 32 14.3 32 32s-14.3 32-32 32L398.4 96c-5.2 25.8-22.9 47.1-46.4 57.3L352 448l160 0c17.7 0 32 14.3 32 32s-14.3 32-32 32l-192 0-192 0c-17.7 0-32-14.3-32-32s14.3-32 32-32l160 0 0-294.7c-23.5-10.3-41.2-31.6-46.4-57.3L128 96c-17.7 0-32-14.3-32-32s14.3-32 32-32l128 0c14.6-19.4 37.8-32 64-32s49.4 12.6 64 32zm55.6 288l144.9 0L512 195.8 439.6 320zM512 416c-62.9 0-115.2-34-126-78.9c-2.6-11 1-22.3 6.7-32.1l95.2-163.2c5-8.6 14.2-13.8 24.1-13.8s19.1 5.3 24.1 13.8l95.2 163.2c5.7 9.8 9.3 21.1 6.7 32.1C627.2 382 574.9 416 512 416zM126.8 195.8L54.4 320l144.9 0L126.8 195.8zM.9 337.1c-2.6-11 1-22.3 6.7-32.1l95.2-163.2c5-8.6 14.2-13.8 24.1-13.8s19.1 5.3 24.1 13.8l95.2 163.2c5.7 9.8 9.3 21.1 6.7 32.1C242 382 189.7 416 126.8 416S11.7 382 .9 337.1z"/></svg>
